public/text-logo.svg

<?xml version="1.0" encoding="UTF-8"?><svg id="Layer_1" xmlns="http://www.w3.org/2000/svg" xmlns:xlink="http://www.w3.org/1999/xlink" viewBox="0 0 5639.52122417591363 1427.259532013237731"><defs><style>.cls-1{fill:none;}.cls-2{clip-path:url(#clippath);}.cls-3,.cls-4{fill:#fff;}.cls-5{fill:#ad1f2a;}.cls-4{stroke:#ad1f2a;stroke-miterlimit:10;stroke-width:18px;}</style><clipPath id="clippath"><path class="cls-1" d="m1027.128497448112284,1116.597756373239463c-245.047324204432698,195.713976114320758-603.635507377873182,155.578066612505609-799.34948349219485-89.469257591928908C32.065037841596677,782.081174576876947,72.200947343418193,423.492991403444648,317.248271547850891,227.7790152891248c245.047324204434517-195.713976114323486,603.635507377869544-155.578066612515613,799.349483492190302,89.469257591917994,195.713976114322577,245.047324204434517,155.578066612505609,603.635507377875911-89.469257591928908,799.349483492196669"/></clipPath></defs><circle class="cls-5" cx="672.188379208959532" cy="672.188379208962942" r="672.163282290233383"/><path class="cls-3" d="m1027.128497448112284,1116.597756373239463c-245.047324204432698,195.713976114320758-603.635507377873182,155.578066612505609-799.34948349219485-89.469257591928908C32.065037841596677,782.081174576876947,72.200947343418193,423.492991403444648,317.248271547850891,227.7790152891248c245.047324204434517-195.713976114323486,603.635507377869544-155.578066612515613,799.349483492190302,89.469257591917994,195.713976114322577,245.047324204434517,155.578066612505609,603.635507377875911-89.469257591928908,799.349483492196669"/><g class="cls-2"><g id="Center"><circle class="cls-5" cx="736.028335828542822" cy="552.75592767724811" r="331.538182283732851" transform="translate(-175.279756382912183 682.349090285417446) rotate(-45.000000000000014)"/><rect class="cls-5" x="35.209972376216228" y="598.801104969187008" width="1279.698596470530902" height="142.18873294117077" transform="translate(-270.4717653306393 567.738623581981415) rotate(-38.613602367216764)"/><path class="cls-3" d="m865.35349922887599,714.641052723363828c-89.283447232714934,71.308750323386448-219.935717093600033,56.685157228555909-291.244467416993757-32.59829000416903-71.308750323386448-89.283447232714934-56.685157228555909-219.935717093601852,32.598290004159026-291.2444674169883,89.283447232725848-71.308750323393724,219.935717093612766-56.685157228562275,291.244467416998305,32.598290004152659,71.308750323392815,89.28344723272312,56.685157228561366,219.935717093610037-32.598290004163573,291.244467417004671"/></g></g><path class="cls-3" d="m185.085887447417917,319.56289346511295h433.329812404439053v396.126071378072481h-190.267383645350662c-134.149806322143434,0-243.062428759088391-108.912622436944957-243.062428759088391-243.062428759088391v-153.06364261898409h0Z" transform="translate(553.474948982047977 -119.806485631509759) rotate(51.205140989216567)"/><circle class="cls-5" cx="736.028335828545778" cy="552.7559276772472" r="147.396389469933297" transform="translate(-175.279756382910819 682.349090285419379) rotate(-45.000000000000014)"/><polygon class="cls-4" points="2338.490521725337203 650.296641388237731 2167.982709225337203 650.296641388237731 2068.666302975337203 800.589610138237731 2040.755048092524703 839.149180450737731 2073.500287350337203 650.296641388237731 1942.543256100337203 650.296641388237731 1853.773724850337203 1162.259532013237731 1984.730756100337203 1162.259532013237731 2007.582318600337203 1037.015391388237731 2007.582318600337203 1037.015391388237731 2053.127240475337203 992.147715606987731 2094.594037350337203 1162.259532013237731 2242.689740475337203 1162.259532013237731 2156.187238033930953 881.942149200737731 2338.490521725337203 650.296641388237731"/><path class="cls-4" d="m3414.710736569087203,650.296641388237731l-89.208984375,511.962890625h-127.0009765625l-76.025390625-313.330078125-54.05322265625,313.330078125h-130.95703125l88.76953125-511.962890625h127.88134765625l75.5859375,313.330078125,53.61328125-313.330078125h131.3955078125Z"/><path class="cls-4" d="m3437.079877194087203,1122.665782013237731c.8125-13.921875,6.328125-26.109375,16.578125-36.546875,10.234375-10.4375,22.3125-15.875,36.25-16.28125,15.140625-.40625,27.53125,4.625,37.15625,15.0625s13.8125,23.03125,12.59375,37.765625c-1.234375,14.34375-7.078125,26.421875-17.515625,36.25-10.4375,9.8125-22.828125,14.9375-37.15625,15.34375-14.75.40625-26.71875-4.40625-35.9375-14.4375s-13.203125-22.40625-11.96875-37.15625Z"/><path class="cls-4" d="m4208.560345944087203,646.072032013237731c-1.640625-28.234375-7.0625-54.328125-16.28125-78.265625s-23.75-43.46875-43.609375-58.609375c-19.875-15.125-47-23.109375-81.390625-23.9375-38.09375-.8125-71.671875,7.484375-100.734375,24.890625-29.078125,17.40625-53.75,40.640625-74.015625,69.71875-.9423828125,1.35107421875-1.867919921875,2.71337890625-2.7939453125,4.07568359375l63.2939453125-365.68505859375h-67.5625l-164.015625,944h68.1875l81.381103515625-470.1845703125c9.564208984375-21.48388671875,21.025146484375-41.89697265625,34.400146484375-61.2216796875,17-24.5625,37.265625-44.4375,60.8125-59.59375s50.46875-22.3125,80.78125-21.5c32.75.828125,56.09375,10.75,70.015625,29.765625,13.921875,19.03125,21.8125,42.140625,23.65625,69.359375s1.328125,53.703125-1.53125,79.46875l-71.875,433.90625h66.953125l73.09375-432.71875c2.453125-27.40625,2.859375-55.234375,1.234375-83.46875Z"/><path class="cls-4" d="m4794.210736569087203,675.931407013237731c-2.25-34.1875-9.421875-65.390625-21.5-93.640625-12.09375-28.25-30.625-51.171875-55.59375-68.78125-24.984375-17.59375-57.953125-27.015625-98.890625-28.25-43.8125-1.640625-82.203125,6.53125-115.171875,24.53125s-60.625,42.140625-82.9375,72.40625c-22.3125,30.28125-40.328125,64.125-54.046875,101.546875s-23.03125,75.15625-27.9375,113.1875l-9.21875,76.078125c-4.09375,36.40625-4,72.3125.296875,107.6875s13.921875,67.484375,28.875,96.328125c14.9375,28.84375,36.234375,52.046875,63.875,69.625s62.765625,26.78125,105.359375,27.609375c26.203125.40625,51.484375-2.5625,75.859375-8.90625,24.359375-6.34375,47.1875-16.171875,68.484375-29.484375,21.28125-13.3125,40.328125-30,57.125-50.0625l-31.328125-46.078125c-23.34375,22.125-48.515625,39.625-75.546875,52.53125s-56.71875,18.734375-89.0625,17.5c-32.359375-.8125-58.265625-8.484375-77.71875-23s-33.890625-33.421875-43.296875-56.734375c-9.421875-23.3125-15.046875-48.5625-16.890625-75.75s-1.34375-54.078125,1.53125-80.65625l4.9169921875-38.359375h382.0673828125l7.375-57.109375c4.5-33.96875,5.625-68.03125,3.375-102.21875Zm-66.640625,78.25l-3.078125,17.1875h-314.239013671875c3.7490234375-20.7138671875,8.872314453125-41.6337890625,15.395263671875-62.75,9.21875-29.84375,21.8125-57.140625,37.78125-81.890625,15.96875-24.734375,36.328125-44.265625,61.109375-58.578125s54.375-20.84375,88.78125-19.625c37.25,1.640625,64.59375,13.203125,82,34.6875,17.40625,21.5,28.046875,47.796875,31.9375,78.890625,3.875,31.09375,3.984375,61.796875.3125,92.078125Z"/><polygon class="cls-4" points="5038.341595944087203 218.259532013237731 4874.325970944087203 1162.259532013237731 4940.669720944087203 1162.259532013237731 5105.294720944087203 218.259532013237731 5038.341595944087203 218.259532013237731"/><path class="cls-4" d="m5630.460736569087203,696.134532013237731c-.40625-35.96875-5.734375-69.78125-15.96875-101.453125-10.25-31.671875-27.453125-57.625-51.609375-77.859375-24.15625-20.21875-57.328125-30.75-99.5-31.5625-34.8125-.8125-66.140625,5.828125-93.984375,19.921875s-52.015625,33.3125-72.484375,57.625c-1.858642578125,2.2080078125-3.677490234375,4.44873046875-5.477294921875,6.70556640625l9.789794921875-72.25244140625h-62.046875l-159.703125,921h67.5625l60.7685546875-351.806640625c5.07373046875,11.375,11.017578125,22.1865234375,17.8564453125,32.416015625,14.734375,22.0625,33.5625,39.953125,56.5,53.640625,22.9375,13.671875,50.375,20.9375,82.328125,21.75,43.8125,1.625,80.859375-7.0625,111.171875-26.046875,30.296875-19,54.96875-44.03125,74.015625-75.09375,19.03125-31.0625,33.984375-65.28125,44.84375-102.671875,10.84375-37.390625,18.53125-74.0625,23.03125-110.03125l8-61.3125c3.671875-32.6875,5.3125-67,4.90625-102.96875Zm-66.640625,23.34375c-.625,28.1875-2.15625,54.328125-4.609375,78.421875l-7.375,63.109375c-4.09375,28.59375-10.25,57.8125-18.4375,87.625s-19.765625,57.1875-34.703125,82.09375-34.390625,44.828125-58.34375,59.734375c-23.96875,14.90625-53.34375,21.546875-88.15625,19.90625-27.4375-.8125-51.890625-8.265625-73.390625-22.359375s-38.40625-32.578125-50.6875-55.453125c-4.164794921875-7.75732421875-7.58203125-15.80224609375-10.287841796875-24.12158203125l62.178466796875-359.96826171875c10.55615234375-17.2216796875,22.945068359375-32.75732421875,37.171875-46.61328125,16.78125-16.34375,35.828125-29.203125,57.125-38.609375,21.296875-9.390625,44.4375-13.890625,69.421875-13.484375,32.75.8125,57.84375,9.5,75.25,26.046875s29.375,37.578125,35.9375,63.109375c6.546875,25.53125,9.515625,52.375,8.90625,80.5625Z"/><path class="cls-4" d="m1887.327435787837203,477.368907013237731c-12.3046875-26.07177734375-30.69287109375-46.8701171875-55.1513671875-62.40234375-24.46533203125-15.52490234375-53.3935546875-23.73046875-86.7919921875-24.609375l-180.615234375-.439453125-88.76953125,511.962890625h130.95703125l28.43353271484375-164.1630859375,64.29107666015625.2470703125c26.07177734375,0,50.82568359375-3.7353515625,74.267578125-11.2060546875,23.43505859375-7.470703125,44.45361328125-18.525390625,63.0615234375-33.1787109375,18.60107421875-14.64599609375,33.68701171875-32.66357421875,45.263671875-54.052734375,11.56982421875-21.3818359375,18.2373046875-45.703125,19.9951171875-72.94921875,2.34130859375-33.3984375-2.63671875-63.1298828125-14.94140625-89.208984375Zm-115.13671875,90.087890625c-2.05322265625,12.0166015625-6.00830078125,22.5634765625-11.865234375,31.640625-5.86376953125,9.08447265625-13.4033203125,16.259765625-22.6318359375,21.533203125s-20.14599609375,8.20556640625-32.7392578125,8.7890625l-50.72967529296875-.44677734375,22.60467529296875-130.51025390625,63.720703125.439453125c11.71435546875,1.17431640625,20.13916015625,5.4931640625,25.2685546875,12.9638671875,5.12255859375,7.470703125,7.91015625,16.259765625,8.349609375,26.3671875s-.2197265625,19.85107421875-1.9775390625,29.2236328125Z"/><polygon class="cls-4" points="2920.921185787837203 389.917735138237731 2875.218060787837203 389.917735138237731 2811.497357662837203 389.917735138237731 2675.266888912837203 723.902110138237731 2655.052045162837203 389.917735138237731 2594.407513912837203 389.917735138237731 2553.538373287837203 389.917735138237731 2484.544232662837203 389.917735138237731 2395.774701412837203 901.880625763237731 2527.610638912837203 901.880625763237731 2542.112592037837203 817.066172638237731 2571.955792721430953 573.304942169487731 2604.954388912837203 901.880625763237731 2691.526654537837203 901.880625763237731 2830.153729733149703 592.492442169487731 2782.932904537837203 804.761485138237731 2766.233685787837203 901.880625763237731 2897.630170162837203 901.880625763237731 2986.839154537837203 389.917735138237731 2920.921185787837203 389.917735138237731"/></svg>

<?xml version="1.0" encoding="UTF-8" standalone="no"?>
<!DOCTYPE svg PUBLIC "-//W3C//DTD SVG 1.1//EN" "http://www.w3.org/Graphics/SVG/1.1/DTD/svg11.dtd">
<svg width="100%" height="100%" viewBox="0 0 5639 1427" version="1.1" xmlns="http://www.w3.org/2000/svg" xmlns:xlink="http://www.w3.org/1999/xlink" xml:space="preserve" xmlns:serif="http://www.serif.com/" style="fill-rule:evenodd;clip-rule:evenodd;stroke-linejoin:round;stroke-miterlimit:2;">
    <path d="M1027.13,1116.6C782.081,1312.31 423.493,1272.18 227.779,1027.13C32.065,782.081 72.201,423.493 317.248,227.779C562.296,32.065 920.884,72.201 1116.6,317.248C1312.31,562.296 1272.18,920.884 1027.13,1116.6" style="fill:white;fill-rule:nonzero;"/>
    <g>
        <clipPath id="_clip1">
            <path d="M1027.13,1116.6C782.081,1312.31 423.493,1272.18 227.779,1027.13C32.065,782.081 72.201,423.493 317.248,227.779C562.296,32.065 920.884,72.201 1116.6,317.248C1312.31,562.296 1272.18,920.884 1027.13,1116.6"/>
        </clipPath>
        <g clip-path="url(#_clip1)">
            <g id="Center">
                <path d="M501.595,318.323C630.982,188.936 841.074,188.936 970.461,318.323C1099.85,447.71 1099.85,657.802 970.461,787.189C841.074,916.576 630.982,916.576 501.595,787.189C372.208,657.802 372.208,447.71 501.595,318.323Z" style="fill:rgb(173,31,42);"/>
                <path d="M1130.65,215.037L1219.39,326.139L219.466,1124.75L130.731,1013.65L1130.65,215.037Z" style="fill:rgb(173,31,42);"/>
                <path d="M865.353,714.641C776.07,785.95 645.418,771.326 574.109,682.043C502.8,592.759 517.424,462.107 606.707,390.798C695.991,319.49 826.643,334.113 897.952,423.397C969.261,512.68 954.637,643.332 865.353,714.641" style="fill:white;fill-rule:nonzero;"/>
            </g>
        </g>
    </g>
    <path d="M420.372,224.665L691.868,562.4L383.13,810.586L263.921,662.293C179.871,557.738 196.52,404.614 301.075,320.565L420.372,224.665Z" style="fill:white;fill-rule:nonzero;"/>
    <path d="M631.803,448.531C689.327,391.008 782.73,391.008 840.253,448.531C897.777,506.054 897.777,599.458 840.253,656.981C782.73,714.504 689.327,714.504 631.803,656.981C574.28,599.458 574.28,506.054 631.803,448.531Z" style="fill:rgb(173,31,42);"/>
    <path d="M2338.49,650.297L2167.98,650.297L2068.67,800.59L2040.76,839.149L2073.5,650.297L1942.54,650.297L1853.77,1162.26L1984.73,1162.26L2007.58,1037.02L2053.13,992.148L2094.59,1162.26L2242.69,1162.26L2156.19,881.942L2338.49,650.297Z" style="fill:white;fill-rule:nonzero;"/>
    <path d="M3414.71,650.297L3325.5,1162.26L3198.5,1162.26L3122.47,848.929L3068.42,1162.26L2937.47,1162.26L3026.24,650.297L3154.12,650.297L3229.7,963.627L3283.32,650.297L3414.71,650.297Z" style="fill:white;fill-rule:nonzero;"/>
    <path d="M3437.08,1122.67C3437.89,1108.74 3443.41,1096.56 3453.66,1086.12C3463.89,1075.68 3475.97,1070.24 3489.91,1069.84C3505.05,1069.43 3517.44,1074.46 3527.06,1084.9C3536.69,1095.34 3540.88,1107.93 3539.66,1122.67C3538.42,1137.01 3532.58,1149.09 3522.14,1158.92C3511.7,1168.73 3499.31,1173.85 3484.99,1174.26C3470.24,1174.67 3458.27,1169.85 3449.05,1159.82C3439.83,1149.79 3435.85,1137.42 3437.08,1122.67Z" style="fill:white;fill-rule:nonzero;"/>
    <path d="M4208.56,646.072C4206.92,617.838 4201.5,591.744 4192.28,567.806C4183.06,543.869 4168.53,524.338 4148.67,509.197C4128.8,494.072 4101.67,486.088 4067.28,485.26C4029.18,484.447 3995.61,492.744 3966.55,510.15C3937.47,527.556 3912.8,550.791 3892.53,579.869C3891.59,581.22 3890.66,582.582 3889.74,583.945L3953.03,218.26L3885.47,218.26L3721.45,1162.26L3789.64,1162.26L3871.02,692.075C3880.58,670.591 3892.05,650.178 3905.42,630.853C3922.42,606.291 3942.68,586.416 3966.23,571.26C3989.78,556.103 4016.7,548.947 4047.01,549.76C4079.76,550.588 4103.11,560.51 4117.03,579.525C4130.95,598.556 4138.84,621.666 4140.69,648.885C4142.53,676.103 4142.01,702.588 4139.15,728.353L4067.28,1162.26L4134.23,1162.26L4207.33,729.541C4209.78,702.135 4210.19,674.306 4208.56,646.072Z" style="fill:white;fill-rule:nonzero;"/>
    <path d="M4794.21,675.931C4791.96,641.744 4784.79,610.541 4772.71,582.291C4760.62,554.041 4742.09,531.119 4717.12,513.51C4692.13,495.916 4659.16,486.494 4618.23,485.26C4574.41,483.619 4536.02,491.791 4503.05,509.791C4470.09,527.791 4442.43,551.931 4420.12,582.197C4397.8,612.478 4379.79,646.322 4366.07,683.744C4352.35,721.166 4343.04,758.9 4338.13,796.931L4328.91,873.01C4324.82,909.416 4324.91,945.322 4329.21,980.697C4333.51,1016.07 4343.13,1048.18 4358.09,1077.03C4373.02,1105.87 4394.32,1129.07 4421.96,1146.65C4449.6,1164.23 4484.73,1173.43 4527.32,1174.26C4553.52,1174.67 4578.8,1171.7 4603.18,1165.35C4627.54,1159.01 4650.37,1149.18 4671.66,1135.87C4692.94,1122.56 4711.99,1105.87 4728.79,1085.81L4697.46,1039.73C4674.12,1061.85 4648.94,1079.35 4621.91,1092.26C4594.88,1105.17 4565.19,1110.99 4532.85,1109.76C4500.49,1108.95 4474.59,1101.28 4455.13,1086.76C4435.68,1072.24 4421.24,1053.34 4411.84,1030.03C4402.41,1006.71 4396.79,981.463 4394.94,954.275C4393.1,927.088 4393.6,900.197 4396.48,873.619L4401.39,835.26L4783.46,835.26L4790.84,778.15C4795.34,744.181 4796.46,710.119 4794.21,675.931ZM4727.57,754.181L4724.49,771.369L4410.25,771.369C4414,750.655 4419.12,729.735 4425.65,708.619C4434.87,678.775 4447.46,651.478 4463.43,626.728C4479.4,601.994 4499.76,582.463 4524.54,568.15C4549.32,553.838 4578.91,547.306 4613.32,548.525C4650.57,550.166 4677.91,561.728 4695.32,583.213C4712.73,604.713 4723.37,631.01 4727.26,662.103C4731.13,693.197 4731.24,723.9 4727.57,754.181Z" style="fill:white;fill-rule:nonzero;"/>
    <path d="M5038.34,218.26L4874.33,1162.26L4940.67,1162.26L5105.3,218.26L5038.34,218.26Z" style="fill:white;fill-rule:nonzero;"/>
    <path d="M5630.46,696.135C5630.05,660.166 5624.73,626.353 5614.49,594.681C5604.24,563.01 5587.04,537.056 5562.88,516.822C5538.73,496.603 5505.55,486.072 5463.38,485.26C5428.57,484.447 5397.24,491.088 5369.4,505.181C5341.55,519.275 5317.38,538.494 5296.91,562.806C5295.06,565.014 5293.24,567.255 5291.44,569.512L5301.23,497.26L5239.18,497.26L5079.48,1418.26L5147.04,1418.26L5207.81,1066.45C5212.88,1077.83 5218.82,1088.64 5225.66,1098.87C5240.4,1120.93 5259.23,1138.82 5282.16,1152.51C5305.1,1166.18 5332.54,1173.45 5364.49,1174.26C5408.3,1175.88 5445.35,1167.2 5475.66,1148.21C5505.96,1129.21 5530.63,1104.18 5549.68,1073.12C5568.71,1042.06 5583.66,1007.84 5594.52,970.447C5605.37,933.056 5613.05,896.385 5617.55,860.416L5625.55,799.103C5629.23,766.416 5630.87,732.103 5630.46,696.135ZM5563.82,719.478C5563.19,747.666 5561.66,773.806 5559.21,797.9L5551.84,861.01C5547.74,889.603 5541.59,918.822 5533.4,948.635C5525.21,978.447 5513.63,1005.82 5498.69,1030.73C5483.76,1055.63 5464.3,1075.56 5440.35,1090.46C5416.38,1105.37 5387.01,1112.01 5352.19,1110.37C5324.76,1109.56 5300.3,1102.1 5278.8,1088.01C5257.3,1073.92 5240.4,1055.43 5228.12,1032.56C5223.95,1024.8 5220.53,1016.75 5217.83,1008.44L5280.01,648.467C5290.56,631.245 5302.95,615.709 5317.18,601.853C5333.96,585.51 5353.01,572.65 5374.3,563.244C5395.6,553.853 5418.74,549.353 5443.73,549.76C5476.48,550.572 5501.57,559.26 5518.98,575.806C5536.38,592.353 5548.35,613.385 5554.91,638.916C5561.46,664.447 5564.43,691.291 5563.82,719.478Z" style="fill:white;fill-rule:nonzero;"/>
    <path d="M1887.33,477.369C1875.02,451.297 1856.63,430.499 1832.18,414.967C1807.71,399.442 1778.78,391.236 1745.38,390.357L1564.77,389.918L1476,901.881L1606.96,901.881L1635.39,737.718L1699.68,737.965C1725.75,737.965 1750.51,734.229 1773.95,726.759C1797.38,719.288 1818.4,708.233 1837.01,693.58C1855.61,678.934 1870.7,660.916 1882.27,639.527C1893.84,618.145 1900.51,593.824 1902.27,566.578C1904.61,533.179 1899.63,503.448 1887.33,477.369ZM1772.19,567.457C1770.14,579.473 1766.18,590.02 1760.33,599.097C1754.46,608.182 1746.92,615.357 1737.69,620.631C1728.47,625.904 1717.55,628.836 1704.95,629.42L1654.23,628.973L1676.83,498.463L1740.55,498.902C1752.26,500.076 1760.69,504.395 1765.82,511.866C1770.94,519.337 1773.73,528.126 1774.17,538.233C1774.61,548.341 1773.95,558.084 1772.19,567.457Z" style="fill:white;fill-rule:nonzero;"/>
    <path d="M2986.84,389.918L2811.5,389.918L2675.27,723.902L2655.05,389.918L2484.54,389.918L2395.78,901.881L2527.61,901.881L2542.11,817.066L2571.96,573.305L2604.95,901.881L2691.53,901.881L2830.15,592.492L2782.93,804.761L2766.23,901.881L2897.63,901.881L2986.84,389.918Z" style="fill:white;fill-rule:nonzero;"/>
</svg>
